public/assets/facebook-gray.svg

<svg width="11" height="20" viewBox="0 0 11 20" fill="none" xmlns="http://www.w3.org/2000/svg">
<path d="M9.11999 3.32003H11V0.14003C10.0897 0.045377 9.17514 -0.00135428 8.25999 2.98641e-05C5.53999 2.98641e-05 3.67999 1.66003 3.67999 4.70003V7.32003H0.609985V10.88H3.67999V20H7.35998V10.88H10.42L10.88 7.32003H7.35998V5.05003C7.35998 4.00003 7.63999 3.32003 9.11999 3.32003Z" fill="#6B7280"/>
</svg>

<svg width="11" height="20" fill="none" xmlns="http://www.w3.org/2000/svg"><path d="M9.12 3.32H11V.14A26.111 26.111 0 0 0 8.26 0C5.54 0 3.68 1.66 3.68 4.7v2.62H.61v3.56h3.07V20h3.68v-9.12h3.06l.46-3.56H7.36V5.05c0-1.05.28-1.73 1.76-1.73Z" fill="#6B7280"/></svg>
